X:153
T:Si Hei Lwli Mabi
M:4/4
L:1/4
Q:90
C:Trad.
R:Slow air
K:D
D E F>F | E D2 E | F>F E D | E4 | D E F>F
| E D2 D/E/ | F D E>F | D4 | D E F>F | A
F E2 | D E F A | F/E/ D E2 | D E F>F | E D2
D | E D F>E | D4 ||
